krita/pics/svg/dark_wheel-rings.svg

<?xml version="1.0" encoding="UTF-8" standalone="no"?>
<svg
   xmlns:osb="http://www.openswatchbook.org/uri/2009/osb"
   xmlns:dc="http://purl.org/dc/elements/1.1/"
   xmlns:cc="http://creativecommons.org/ns#"
   xmlns:rdf="http://www.w3.org/1999/02/22-rdf-syntax-ns#"
   xmlns:svg="http://www.w3.org/2000/svg"
   xmlns="http://www.w3.org/2000/svg"
   version="1.1"
   width="16"
   height="16"
   id="svg6190">
  <metadata
     id="metadata6196">
    <rdf:RDF>
      <cc:Work
         rdf:about="">
        <dc:format>image/svg+xml</dc:format>
        <dc:type
           rdf:resource="http://purl.org/dc/dcmitype/StillImage" />
        <dc:title></dc:title>
        <dc:date>2021</dc:date>
        <dc:creator>
          <cc:Agent>
            <dc:title>Timothée Giet</dc:title>
          </cc:Agent>
        </dc:creator>
        <cc:license
           rdf:resource="http://creativecommons.org/licenses/by-sa/4.0/" />
      </cc:Work>
      <cc:License
         rdf:about="http://creativecommons.org/licenses/by-sa/4.0/">
        <cc:permits
           rdf:resource="http://creativecommons.org/ns#Reproduction" />
        <cc:permits
           rdf:resource="http://creativecommons.org/ns#Distribution" />
        <cc:requires
           rdf:resource="http://creativecommons.org/ns#Notice" />
        <cc:requires
           rdf:resource="http://creativecommons.org/ns#Attribution" />
        <cc:permits
           rdf:resource="http://creativecommons.org/ns#DerivativeWorks" />
        <cc:requires
           rdf:resource="http://creativecommons.org/ns#ShareAlike" />
      </cc:License>
    </rdf:RDF>
  </metadata>
  <defs
     id="defs6194">
    <linearGradient
       id="linearGradient1163"
       osb:paint="solid"
       gradientTransform="translate(-4,4)">
      <stop
         style="stop-color:#d2d2d2;stop-opacity:1;"
         offset="0"
         id="stop1161" />
    </linearGradient>
  </defs>
  <path
     id="path1641"
     d="M 8 0 C 3.581722 0 0 3.581722 0 8 C 0 12.418278 3.581722 16 8 16 C 12.418278 16 16 12.418278 16 8 C 16 3.581722 12.418278 0 8 0 z M 8 2 A 6 6 0 0 1 14 8 A 6 6 0 0 1 8 14 A 6 6 0 0 1 2 8 A 6 6 0 0 1 8 2 z "
     style="opacity:1;vector-effect:none;fill:#373737;fill-opacity:1;stroke:none;stroke-width:4;stroke-linecap:square;stroke-linejoin:round;stroke-miterlimit:4;stroke-dasharray:none;stroke-dashoffset:3.20000005;stroke-opacity:0.55063291" />
  <path
     id="path820"
     d="M 8 4 C 5.790861 4 4 5.790861 4 8 C 4 10.209139 5.790861 12 8 12 C 10.209139 12 12 10.209139 12 8 C 12 5.790861 10.209139 4 8 4 z M 8 6 A 2 2 0 0 1 10 8 A 2 2 0 0 1 8 10 A 2 2 0 0 1 6 8 A 2 2 0 0 1 8 6 z "
     style="opacity:1;vector-effect:none;fill:#373737;fill-opacity:1;stroke:none;stroke-width:4;stroke-linecap:square;stroke-linejoin:round;stroke-miterlimit:4;stroke-dasharray:none;stroke-dashoffset:3.20000005;stroke-opacity:0.55063291" />
</svg>

<svg xmlns:osb="http://www.openswatchbook.org/uri/2009/osb" xmlns:dc="http://purl.org/dc/elements/1.1/" xmlns:cc="http://creativecommons.org/ns#" xmlns:rdf="http://www.w3.org/1999/02/22-rdf-syntax-ns#" xmlns="http://www.w3.org/2000/svg" version="1.1" width="16" height="16" id="svg6190"><metadata id="metadata6196"><rdf:RDF><cc:Work><dc:format>image/svg+xml</dc:format><dc:type rdf:resource="http://purl.org/dc/dcmitype/StillImage"/><dc:title/><dc:date>2021</dc:date><dc:creator><cc:Agent><dc:title>Timothée Giet</dc:title></cc:Agent></dc:creator><cc:license rdf:resource="http://creativecommons.org/licenses/by-sa/4.0/"/></cc:Work><cc:License rdf:about="http://creativecommons.org/licenses/by-sa/4.0/"><cc:permits rdf:resource="http://creativecommons.org/ns#Reproduction"/><cc:permits rdf:resource="http://creativecommons.org/ns#Distribution"/><cc:requires rdf:resource="http://creativecommons.org/ns#Notice"/><cc:requires rdf:resource="http://creativecommons.org/ns#Attribution"/><cc:permits rdf:resource="http://creativecommons.org/ns#DerivativeWorks"/><cc:requires rdf:resource="http://creativecommons.org/ns#ShareAlike"/></cc:License></rdf:RDF></metadata><defs id="defs6194"><linearGradient id="linearGradient1163" osb:paint="solid" gradientTransform="translate(-4 4)"><stop style="stop-color:#d2d2d2;stop-opacity:1" offset="0" id="stop1161"/></linearGradient></defs><path id="path1641" d="M8 0a8 8 0 1 0 0 16A8 8 0 0 0 8 0zm0 2a6 6 0 0 1 6 6 6 6 0 0 1-6 6 6 6 0 0 1-6-6 6 6 0 0 1 6-6z" style="opacity:1;vector-effect:none;fill:#373737;fill-opacity:1;stroke:none;stroke-width:4;stroke-linecap:square;stroke-linejoin:round;stroke-miterlimit:4;stroke-dasharray:none;stroke-dashoffset:3.20000005;stroke-opacity:.55063291"/><path id="path820" d="M8 4a4 4 0 1 0 0 8 4 4 0 0 0 0-8zm0 2a2 2 0 0 1 2 2 2 2 0 0 1-2 2 2 2 0 0 1-2-2 2 2 0 0 1 2-2z" style="opacity:1;vector-effect:none;fill:#373737;fill-opacity:1;stroke:none;stroke-width:4;stroke-linecap:square;stroke-linejoin:round;stroke-miterlimit:4;stroke-dasharray:none;stroke-dashoffset:3.20000005;stroke-opacity:.55063291"/></svg>
